actions/16/media-random-albums-amarok.svg

<svg xmlns="http://www.w3.org/2000/svg" viewBox="0 0 16 16">
  <defs id="defs3051">
    <style type="text/css" id="current-color-scheme">.ColorScheme-Text {color:#fcfcfc;}</style>
  </defs>
 <path style="fill:currentColor;fill-opacity:1;stroke:none" 
     d="m 3,2 c 0,0 -2,0 -2,2 0,2 0,6 0,8 0,2 2,2 2,2 H 4 V 13 C 4,13 3,13 3,12 3,11 3,5 3,4 3,3 4,3 4,3 c 0,0 7,0 8,0 1,0 1,1 1,1 v 2 h 1 V 4 C 14,4 14,2 12,2 10,2 3,2 3,2 Z m 9,5 V 8 H 10 C 8.892,8 8,8.892 8,10 v 1 c 0,0.554 -0.446,1 -1,1 H 5 v 1 h 2 c 1.108,0 2,-0.892 2,-2 V 10 C 9,9.446 9.446,9 10,9 h 2 v 1 L 14,8.5 Z M 5,8 V 9 H 7 V 8 Z m 7,3 v 1 h -2 v 1 h 2 v 1 l 2,-1.5 z"
     class="ColorScheme-Text"
     />
</svg>

<svg xmlns="http://www.w3.org/2000/svg" viewBox="0 0 16 16">
  <defs id="defs3051">
    <style type="text/css" id="current-color-scheme">
      .ColorScheme-Text {
        color:#eff0f1;
      }
      </style>
  </defs>
 <path style="fill:currentColor;fill-opacity:1;stroke:none" 
     d="M 1 2 L 1 14 L 4 14 L 4 13 L 3 13 L 3 3 L 13 3 L 13 6 L 14 6 L 14 2 L 1 2 z M 12 7 L 12 8 L 10 8 C 8.892 8 8 8.892 8 10 L 8 11 C 8 11.554 7.554 12 7 12 L 5 12 L 5 13 L 7 13 C 8.108 13 9 12.108 9 11 L 9 10 C 9 9.446 9.446 9 10 9 L 12 9 L 12 10 L 14 8.5 L 12 7 z M 5 8 L 5 9 L 7 9 L 7 8 L 5 8 z M 12 11 L 12 12 L 10 12 L 10 13 L 12 13 L 12 14 L 14 12.5 L 12 11 z "
     class="ColorScheme-Text"
     />
</svg>
